!!!!SEGMENT: pl-kk--kk-i-7--067_asola-giovanni-matteo--o-rex-gloriae.krn
!!!cenid: 16xx:906
!!!COM: Asola, Giovanni Matteo
!!!COM-rismid: pe20000387
!!!CDT: <=1532-1609/10/01
!!!CNT: Italian
!!!OTL: O rex gloriae
!!!PDT:
!!!AGN: Sacred
!!!SMS-siglum: PL-Kk
!!!SMS-shelfmark: Kk.I.7
!!!SMS-shelfwork: 067 W
!!!SMS-variant:
!!!SMS-altvar:
!!!NIFC-rismid: 300258144
!!!URL-scan: http://repozytorium.nifc.pl/skany/pl-kk-nut--i-7
!!!ONB-nifc: UWAGA: C (skan 0062-0063, s. 7-8), A (0148-0149, 7-8), T (0225-0226, s.7-8), B (0312, s.111). Następny utwór: O Domine Jesu Christe
!!!key:
**kern	**text	**kern	**text	**kern	**text	**kern	**text
*part4	*part4	*part3	*part3	*part2	*part2	*part1	*part1
*staff4	*staff4	*staff3	*staff3	*staff2	*staff2	*staff1	*staff1
*Ibass	*	*Itenor	*	*Ialto	*	*Isoprn	*
*I"BASSVS.	*	*I"TENOR.	*	*I"ALTVS.	*	*I"CANTVS.	*
*I'B	*	*I'T	*	*I'A	*	*I'S	*
*clefC4	*	*clefC3	*	*clefC3	*	*clefC2	*
*k[b-]	*	*k[b-]	*	*k[b-]	*	*k[b-]	*
*g:dor	*	*g:dor	*	*g:dor	*	*g:dor	*
*M2/1	*	*M2/1	*	*M2/1	*	*M2/1	*
*met(C|)	*	*met(C|)	*	*met(C|)	*	*met(C|)	*
=1-	=1-	=1-	=1-	=1-	=1-	=1-	=1-
*all\right	*	*all\right	*	*all\right	*	*all\right	*
!	!	!LO:TX:a:t=1.	!	!	!	!	!
!	!	!LO:TX:t=P:problem=kreska pseudotaktowa	!	!	!	!	!
!LO:TX:t=P:problem=przed kluczem inicjał O	!	!LO:TX:t=P:problem=przed kluczem inicjał O	!	!LO:TX:t=P:problem=przed kluczem inicjał O	!	!LO:TX:t=P:problem=przed kluczem inicjał O	!
0G	O	1r	.	00r	.	00r	.
.	.	0d	O	.	.	.	.
=2-	=2-	=2-	=2-	=2-	=2-	=2-	=2-
!LO:TX:t=P:problem=kreska pseudotaktowa	!	!	!	!	!	!	!
1D	Rex	.	.	.	.	.	.
!	!	!LO:TX:t=P:problem=kreska pseudotaktowa	!	!	!	!	!
1F	glo-	1A	Rex	.	.	.	.
=3-	=3-	=3-	=3-	=3-	=3-	=3-	=3-
!	!	!	!	!LO:TX:t=P:problem=kreska pseudotaktowa	!	!	!
1E	-ri-	1c	glo-	1r	.	00r	.
!LO:TX:t=P:problem=kreska pseudotaktowa	!	!	!	!	!	!	!
0D	-ae	1B-	-ri-	0d	O	.	.
=4-	=4-	=4-	=4-	=4-	=4-	=4-	=4-
.	.	2A/	-ae	.	.	.	.
*	*ij	*	*ij	*	*	*	*
.	.	1f	O	.	.	.	.
!	!	!	!	!LO:TX:t=P:problem=kreska pseudotaktowa	!	!	!
2rG	.	.	.	1A	Rex	.	.
1A\	O	4e\	.	.	.	.	.
!	!	!LO:TX:t=P:problem=kreska pseudotaktowa	!	!	!	!	!
.	.	4d\	.	.	.	.	.
=5-	=5-	=5-	=5-	=5-	=5-	=5-	=5-
*	*	*2\right	*	*	*	*	*
.	.	2e\	Rex	1c	glo-	0r	.
2F/	Rex	2f\	.	.	.	.	.
2.G/	glo-	2d\	glo-	1B-	-ri-	.	.
.	.	1g\	.	.	.	.	.
4G/	-ri-	.	.	.	.	.	.
=6-	=6-	=6-	=6-	=6-	=6-	=6-	=6-
!LO:TX:t=P:problem=kreska pseudotaktowa	!	!	!	!	!	!LO:TX:t=P:problem=kreska pseudotaktowa	!
1D	-ae	.	.	2A/	-ae	1r	.
*	*	*	*	*2\right	*	*	*
!	!	!	!	!LO:TX:t=P:problem=kreska pseudotaktowa	!	!	!
.	.	2f\	-ri-	2d\	O	.	.
*	*	*custos:G	*	*	*	*	*
!	!	!LO:TX:t=P:problem=kreska pseudotaktowa	!	!	!	!	!
2rG	.	1g	-ae	4G/	Rex	0g	O
*	*	*	*Xij	*	*	*	*
.	.	.	.	4A/	.	.	.
1G/	O	.	.	4B-/	.	.	.
!	!	!	!	!LO:TX:t=P:problem=kreska pseudotaktowa	!	!	!
.	.	.	.	4c/	.	.	.
!	!	!LO:LB:g=original	!	!	!	!	!
=7-	=7-	=7-	=7-	=7-	=7-	=7-	=7-
.	.	2r	.	2d\	.	.	.
2C/	Rex	2.G/	O	1c	.	.	.
!	!	!	!	!	!	!LO:TX:t=P:problem=kreska pseudotaktowa	!
2.G/	glo-	.	.	.	.	1d	Rex
.	.	4A/	.	.	.	.	.
!	!	!	!	!LO:TX:t=P:problem=kreska pseudotaktowa	!	!	!
.	.	4B-/	.	2B-/	glo-	.	.
!	!	!LO:TX:t=P:problem=kreska pseudotaktowa	!	!	!	!	!
4G/	-ri-	4c/	.	.	.	.	.
=8-	=8-	=8-	=8-	=8-	=8-	=8-	=8-
!LO:TX:t=P:problem=kreska pseudotaktowa	!	!	!	!	!	!	!
1D	-ae	1d	Rex	2A/	.	1f	glo-
*	*Xij	*	*	*	*	*	*
.	.	.	.	1d	-ri-	.	.
!	!	!LO:TX:t=P:problem=kreska pseudotaktowa	!	!	!	!	!
1rA	.	1A	.	.	.	1e	-ri-
.	.	.	.	2c/	.	.	.
=9-	=9-	=9-	=9-	=9-	=9-	=9-	=9-
!	!	!	!	!LO:TX:t=P:problem=kreska pseudotaktowa	!	!	!
1G	O	2.B-/	glo-	0d	-ae	2d/	-ae
*	*	*	*	*	*	*	*ij
.	.	.	.	.	.	1g	O
.	.	8A/L	.	.	.	.	.
.	.	8G/J	.	.	.	.	.
!LO:TX:t=P:problem=kreska pseudotaktowa	!	!	!	!	!	!	!
1D	Rex	2A/	.	.	.	.	.
*	*	*	*	*	*	*2\right	*
!	!	!LO:TX:t=P:problem=kreska pseudotaktowa	!	!	!	!LO:TX:t=P:problem=kreska pseudotaktowa	!
.	.	2d\	.	.	.	2f\	Rex
=10-	=10-	=10-	=10-	=10-	=10-	=10-	=10-
1F	glo-	4c/	.	1rc	.	1a	glo-
.	.	4A/	.	.	.	.	.
.	.	1d	.	.	.	.	.
1E	-ri-	.	.	2.G/	Do-	1g	-ri-
.	.	2c/	-ri-	.	.	.	.
!	!	!	!	!LO:TX:t=P:problem=kreska pseudotaktowa	!	!	!
.	.	.	.	4G/	-mi-	.	.
=11-	=11-	=11-	=11-	=11-	=11-	=11-	=11-
!LO:TX:t=P:problem=kreska pseudotaktowa	!	!LO:TX:t=P:problem=kreska pseudotaktowa	!	!	!	!LO:TX:t=P:problem=kreska pseudotaktowa	!
1D	-ae	0d	-ae	2B-/	-ne	1f	-ae
*	*	*	*	*	*	*	*Xij
!	!	!	!	!LO:TX:t=P:problem=kreska pseudotaktowa	!	!	!
.	.	.	.	2A/	Vir-	.	.
!LO:TX:t=P:problem=kreska pseudotaktowa	!	!	!	!	!	!	!
0rG	.	.	.	4G/	-tu-	2.g\	Do-
.	.	.	.	4A/	.	.	.
.	.	.	.	4B-/	.	.	.
!	!	!	!	!LO:TX:t=P:problem=kreska pseudotaktowa	!	!	!
.	.	.	.	4c/	.	4g\	-mi-
=12-	=12-	=12-	=12-	=12-	=12-	=12-	=12-
.	.	0r	.	1d	.	2b-\	-ne
.	.	.	.	.	.	2a\	.
!	!	!	!	!	!	!LO:TX:t=P:problem=kreska pseudotaktowa	!
2.G/	Do-	.	.	2G/	-t(um)	1g	Vir-
*	*	*	*	*	*ij	*	*
.	.	.	.	2.d\	Do-	.	.
4G/	-mi-	.	.	.	.	.	.
=13-	=13-	=13-	=13-	=13-	=13-	=13-	=13-
*2\right	*	*	*	*	*	*	*
!	!	!LO:TX:t=P:problem=kreska pseudotaktowa	!	!	!	!	!
2B-\	-ne	1r	.	.	.	4f\	-tu-
.	.	.	.	4d\	-mi-	4g\	.
*	*	*	*	*custos:B	*	*	*
!LO:TX:t=P:problem=kreska pseudotaktowa	!	!	!	!LO:TX:t=P:problem=kreska pseudotaktowa	!	!	!
2A/	Vir-	.	.	2c/	-ne	4a\	.
.	.	.	.	.	.	4f\	.
!	!	!	!	!LO:LB:g=original	!	!	!
1G	-tu-	2.d\	Do-	2B-/	Vir-	4g\	.
.	.	.	.	.	.	4a\	.
.	.	.	.	1d\	-tu-	2.b-\	-t(um)
.	.	4d\	-mi-	.	.	.	.
=14-	=14-	=14-	=14-	=14-	=14-	=14-	=14-
*custos:B	*	*	*	*	*	*	*
!LO:TX:t=P:problem=kreska pseudotaktowa	!	!	!	!	!	!	!
1A	-t(um)	2f\	-ne	.	.	.	.
.	.	.	.	.	.	4a\	.
*	*	*	*	*	*	*	*ij
!	!	!LO:TX:t=P:problem=kreska pseudotaktowa	!	!	!	!	!
.	.	2e\	Vir-	2c/	.	1a	Vir-
!LO:LB:g=original	!	!	!	!LO:TX:t=P:problem=kreska pseudotaktowa	!	!	!
2.B-\	Do-	1d	-tu-	1d	-t(um)	.	.
*	*	*	*	*	*Xij	*	*
!	!	!	!	!	!	!LO:TX:t=P:problem=kreska pseudotaktowa	!
.	.	.	.	.	.	2g\	.
4B-\	-mi-	.	.	.	.	.	.
=15-	=15-	=15-	=15-	=15-	=15-	=15-	=15-
*	*	*	*	*	*	*lig	*
2A/	-ne	2e\	-t(um)	2r	.	1a	-tu-
*	*	*	*ij	*	*	*	*
!LO:TX:t=P:problem=kreska pseudotaktowa	!	!LO:TX:t=P:problem=kreska pseudotaktowa	!	!	!	!	!
2F/	Vir-	2f\	Do-	2c/	Do-	.	.
2.G/	-tu-	2d\	-mi-	2B-/	-mi-	1b-	.
.	.	1g\	-ne	1d\	-ne-	.	.
4F/	.	.	.	.	.	.	.
*	*	*	*	*	*	*Xlig	*
=16-	=16-	=16-	=16-	=16-	=16-	=16-	=16-
4D/	.	.	.	.	.	0a	.
4E/	.	.	.	.	.	.	.
!	!	!	!	!LO:TX:t=P:problem=kreska pseudotaktowa	!	!	!
4F/	.	2f\	Vir-	2d\	-Vir-	.	.
4G/	.	.	.	.	.	.	.
!	!	!	!	!LO:TX:t=P:#above:problem	!	!	!
1A	.	1e	-tu-	1c#X	-tu-	.	.
=17-	=17-	=17-	=17-	=17-	=17-	=17-	=17-
*M3/1	*	*M3/1	*	*M3/1	*	*M3/1	*
*	*	*	*	*	*	*custos:b	*
!LO:TX:t=P:problem=kreska pseudotaktowa	!	!LO:TX:t=P:problem=kreska pseudotaktowa	!	!LO:TX:t=P:problem=kreska pseudotaktowa	!	!LO:TX:t=P:problem=kreska pseudotaktowa	!
0.D	-tum	0.f#X,	-tum	0.d	-t(um)	0.a	-t(um)
*	*	*	*Xij	*	*	*	*Xij
!	!	!	!	!	!	!LO:LB:g=original	!
=18-	=18-	=18-	=18-	=18-	=18-	=18-	=18-
1G	qui	1g	qui	1d	qui	1b-	qui
1G	tri-	1d	tri-	1B-	tri-	1g	tri-
*	*	*custos:f	*	*	*	*	*
!	!	!LO:TX:t=P:problem=kreska pseudotaktowa	!	!	!	!	!
!	!	!LO:SIC:v:s=1f	!	!	!	!	!
!	!	!	!	!LO:TX:t=P:problem=kreska pseudotaktowa	!	!LO:TX:t=P:problem=kreska pseudotaktowa	!
1F	-um-	1e	-um-	1cny	-um-	1a	-um-
!	!	!LO:LB:g=original	!	!	!	!	!
=19-	=19-	=19-	=19-	=19-	=19-	=19-	=19-
0B-	-pha-	0fny	-pha-	0d	-pha-	0b-	-pha-
!LO:TX:t=P:problem=kreska pseudotaktowa	!	!LO:TX:t=P:problem=kreska pseudotaktowa	!	!LO:TX:t=P:problem=kreska pseudotaktowa	!	!	!
1F	-tor	1f	-tor	1c	-tor	1a	-tor
=20-	=20-	=20-	=20-	=20-	=20-	=20-	=20-
0G	ho-	0d	ho-	0B-	ho-	0g	ho-
!	!	!	!	!LO:TX:t=P:problem=kreska pseudotaktowa	!	!	!
1G	-di-	1d	-di-	1B-	-di-	1g	-di-
=21-	=21-	=21-	=21-	=21-	=21-	=21-	=21-
!LO:TX:t=P:problem=kreska pseudotaktowa	!	!LO:TX:t=P:problem=kreska pseudotaktowa	!	!LO:TX:t=P:problem=kreska pseudotaktowa	!	!LO:TX:t=P:problem=kreska pseudotaktowa	!
0.D	-e	0.d	-e	0.A	-e	0.f#X	-e
=22-	=22-	=22-	=22-	=22-	=22-	=22-	=22-
*	*ij	*	*ij	*	*ij	*	*ij
1D	qui	1A	qui	1d	qui	1f#X	qui
1G	tri-	1B-	tri-	1d	tri-	1g	tri-
!	!	!	!	!LO:TX:t=P:problem=kreska pseudotaktowa	!	!	!
1F	-um-	1c	-um-	1f	-um-	1a	-um-
=23-	=23-	=23-	=23-	=23-	=23-	=23-	=23-
0B-	-pha-	0d	-pha-	0f	-pha-	0b-	-pha-
!LO:TX:t=P:problem=kreska pseudotaktowa	!	!LO:TX:t=P:problem=kreska pseudotaktowa	!	!LO:TX:t=P:problem=kreska pseudotaktowa	!	!LO:TX:t=P:problem=kreska pseudotaktowa	!
1F	-tor	1c	-tor	1f	-tor	1a	-tor
=24-	=24-	=24-	=24-	=24-	=24-	=24-	=24-
1.G	ho-	1.B-	ho-	1.d	ho-	1.b-	ho-
!	!	!	!	!LO:SIC:v:s=5f	!	!	!
2F/	.	(2c/	.	2e\	.	2a\	.
*	*	*	*	*col	*	*	*
2D/	.	2d\)	.	(<0f	-di-	2fny\	.
!LO:TX:t=P:problem=kreska pseudotaktowa	!	!LO:TX:t=P:problem=kreska pseudotaktowa	!	!	!	!LO:TX:t=P:problem=kreska pseudotaktowa	!
2E/	.	2G/	.	.	.	2g\	.
=25-	=25-	=25-	=25-	=25-	=25-	=25-	=25-
2F/	.	0d	-di-	.	.	2a\	.
2G/	.	.	.	.	.	2b-\	.
*	*	*	*	*custos:d	*	*	*
1A	.	.	.	0e)	.	1a	.
*custos:D	*	*	*	*	*	*	*
1A	di-	1c	.	.	.	1a	-di-
*	*	*	*	*Xcol	*	*	*
!LO:LB:g=original	!	!	!	!LO:PB:g=original	!	!	!
=26-	=26-	=26-	=26-	=26-	=26-	=26-	=26-
*M2/1	*	*M2/1	*	*M2/1	*	*M2/1	*
*met(C|)	*	*met(C|)	*	*met(C|)	*	*met(C|)	*
!LO:TX:t=P:problem=kreska pseudotaktowa	!	!	!	!LO:TX:t=P:problem=kreska pseudotaktowa	!	!LO:TX:t=P:problem=kreska pseudotaktowa	!
1D	-e	2.d\	-e	0d	-e	1f#X	-e
*	*Xij	*	*Xij	*	*Xij	*	*Xij
.	.	4c/	.	.	.	.	.
2rG	.	2B-/	ho-	.	.	00r	.
1G/	ſu-	2G/	-di-	.	.	.	.
=27-	=27-	=27-	=27-	=27-	=27-	=27-	=27-
!	!	!LO:TX:t=P:problem=kreska pseudotaktowa	!	!	!	!	!
.	.	1d	-e	2r	.	.	.
!LO:TX:t=P:problem=kreska pseudotaktowa	!	!	!	!LO:TX:a:B:t=Post Eleuationem de Paſsione D(omi)ni Laurenty Rattſi.	!	!	!
2F/	-per	.	.	1d	Su-	.	.
2G/	o-	00r	.	.	.	.	.
!	!	!	!	!LO:TX:t=P:problem=kreska pseudotaktowa	!	!	!
2A/	-mnes	.	.	2c/	-per	.	.
=28-	=28-	=28-	=28-	=28-	=28-	=28-	=28-
2B-\	cae-	.	.	2d\	o-	.	.
!LO:TX:t=P:problem=kreska pseudotaktowa	!	!	!	!	!	!	!
2G/	-los	.	.	2e\	-mnes	.	.
2A/	a-	.	.	2f\	cae-	0r	.
!	!	!	!	!LO:TX:t=P:problem=kreska pseudotaktowa	!	!	!
2B-\	.	.	.	2d\	-los	.	.
=29-	=29-	=29-	=29-	=29-	=29-	=29-	=29-
2c\	-ſcen-	.	.	2e\	a-	.	.
4B-\	.	.	.	2f\	-ſcen-	.	.
!LO:TX:t=P:problem=kreska pseudotaktowa	!	!	!	!	!	!	!
4A\	.	.	.	.	.	.	.
!	!	!LO:TX:t=P:problem=kreska pseudotaktowa	!	!	!	!LO:TX:t=P:problem=kreska pseudotaktowa	!
4B-\	.	0r	.	4g\	-di-	1r	.
4c\	.	.	.	4f\	.	.	.
1d\	.	.	.	4f\	.	.	.
.	.	.	.	8e\L	.	.	.
!	!	!	!	!LO:TX:t=P:problem=kreska pseudotaktowa	!	!	!
.	.	.	.	8d\J	.	.	.
=30-	=30-	=30-	=30-	=30-	=30-	=30-	=30-
.	.	.	.	1e	.	2r	.
!LO:TX:t=P:problem=kreska pseudotaktowa	!	!	!	!	!	!	!
2c\	.	.	.	.	.	1g	Su-
!	!	!	!	!LO:TX:t=P:problem=kreska pseudotaktowa	!	!	!
2.d\	.	2r	.	1d	-ſti	.	.
!	!	!	!	!	!	!LO:TX:t=P:problem=kreska pseudotaktowa	!
.	.	1d\	Su-	.	.	2fny\	-per
4c\	.	.	.	.	.	.	.
=31-	=31-	=31-	=31-	=31-	=31-	=31-	=31-
2B-\	-di-	.	.	0r	.	2g\	o-
!	!	!LO:TX:t=P:problem=kreska pseudotaktowa	!	!	!	!	!
2A/	.	2c/	-per	.	.	2a\	-mnes
!LO:TX:t=P:problem=kreska pseudotaktowa	!	!	!	!	!	!	!
1G	-ſti	2d\	o-	.	.	2b-\	cae-
!	!	!	!	!	!	!LO:TX:t=P:problem=kreska pseudotaktowa	!
.	.	2e\	-mnes	.	.	2g\	-los
=32-	=32-	=32-	=32-	=32-	=32-	=32-	=32-
*	*	*	*	*	*ij	*	*
00r	.	2f\	cae-	2.d\	Su-	2a\	a-
*	*	*	*	*	*	*custos:cc	*
!	!	!LO:TX:t=P:problem=kreska pseudotaktowa	!	!	!	!	!
.	.	2d\	-los	.	.	2b-\	-ſcen-
!	!	!	!	!LO:TX:t=P:problem=kreska pseudotaktowa	!	!	!
.	.	.	.	4d\	-per	.	.
!	!	!	!	!	!	!LO:LB:g=original	!
.	.	2e\	a-	2c/	o-	4cc\	-di-
.	.	.	.	.	.	4b-\	.
*	*	*custos:g	*	*	*	*	*
!	!	!	!	!LO:TX:t=P:problem=kreska pseudotaktowa	!	!	!
.	.	2f\	-ſcen-	2d\	-mnes	4a\	.
!	!	!	!	!	!	!LO:TX:t=P:problem=kreska pseudotaktowa	!
.	.	.	.	.	.	4g\	.
!	!	!LO:LB:g=original	!	!	!	!	!
=33-	=33-	=33-	=33-	=33-	=33-	=33-	=33-
.	.	2g\	-di-	2G/	cae-	2b-\	.
.	.	2e\	.	2A/	-los	2.a\	.
!	!	!LO:TX:t=P:problem=kreska pseudotaktowa	!	!	!	!	!
.	.	1d	-ſti	2B-/	a-	.	.
.	.	.	.	.	.	4g\	.
!	!	!	!	!LO:TX:t=P:problem=kreska pseudotaktowa	!	!	!
.	.	.	.	2G/	-ſcen-	1g\	.
=34-	=34-	=34-	=34-	=34-	=34-	=34-	=34-
*	*	*	*	*lig	*	*	*
1D	ne	2r	.	1A	-di-	.	.
.	.	2d\	ne	.	.	2f\	.
*	*	*	*	*col	*	*	*
!	!	!	!	!	!	!LO:TX:t=P:problem=kreska pseudotaktowa	!
2E-X/	de-	2B-/	de-	2.G/	.	0g	-ſti
!LO:TX:t=P:problem=kreska pseudotaktowa	!	!LO:TX:t=P:problem=kreska pseudotaktowa	!	!	!	!	!
2C/	-re-	2c/	-re-	.	.	.	.
*	*	*	*	*Xlig	*	*	*
.	.	.	.	4A/	.	.	.
*	*	*	*	*Xcol	*	*	*
=35-	=35-	=35-	=35-	=35-	=35-	=35-	=35-
*	*	*	*	*custos:c	*	*	*
!	!	!	!	!LO:TX:t=P:problem=kreska pseudotaktowa	!	!	!
!	!	!	!	!LO:N:acc=#	!	!	!
!	!	!	!	!LO:TX:a:t=P:#above:problem	!	!	!
1G	-lin-	2d\	-lin-	1Bn	.	.	.
.	.	2e\	-quas	.	.	.	.
!	!	!	!	!LO:LB:g=original	!	!	!
!	!	!LO:TX:t=P:problem=kreska pseudotaktowa	!	!	!	!	!
2F/	-quas	1f	nos	2c,/	-ſti	2r	.
*	*	*	*	*	*Xij	*	*
2D/	nos	.	.	2d\	ne	2a\	ne
=36-	=36-	=36-	=36-	=36-	=36-	=36-	=36-
1.G	Or-	1.g	Or-	2d\	de-	2b-\	de-
!	!	!	!	!LO:TX:t=P:problem=kreska pseudotaktowa	!	!LO:TX:t=P:problem=kreska pseudotaktowa	!
.	.	.	.	2d\	-re-	2g\	-re-
.	.	.	.	1d	-lin-	1.a	-lin-
2D/	-pha-	2f#X\	-pha-	.	.	.	.
=37-	=37-	=37-	=37-	=37-	=37-	=37-	=37-
!LO:TX:t=P:problem=kreska pseudotaktowa	!	!LO:TX:t=P:problem=kreska pseudotaktowa	!	!	!	!	!
1D	-nos	1f#	-nos	2d\	-quas	.	.
!	!	!	!	!LO:TX:t=P:problem=kreska pseudotaktowa	!	!LO:TX:t=P:problem=kreska pseudotaktowa	!
.	.	.	.	2A/	nos	2d/	-quas
0r	.	1r	.	1c	or-	2e/	nos
.	.	.	.	.	.	1a\	Or-
=38-	=38-	=38-	=38-	=38-	=38-	=38-	=38-
.	.	2r	.	1B-y	-pha-	.	.
!	!	!LO:TX:t=P:problem=kreska pseudotaktowa	!	!	!	!	!
.	.	2d\	ſed	.	.	2g\	-pha-
!	!	!	!	!LO:TX:t=P:problem=kreska pseudotaktowa	!	!LO:TX:t=P:problem=kreska pseudotaktowa	!
2r	.	1fny	mit-	1A	-nos	0a	-nos
2D/	ſed	.	.	.	.	.	.
=39-	=39-	=39-	=39-	=39-	=39-	=39-	=39-
*custos	*	*	*	*	*	*	*
!LO:TX:t=P:problem=kreska pseudotaktowa	!	!	!	!	!	!	!
1A	mit-	2e\	-te	0r	.	.	.
.	.	2c/	p(ro)-	.	.	.	.
!LO:LB:g=original	!	!	!	!	!	!	!
2G/	-te	2d\	-miſ-	.	.	0r	.
2Eny/	pro-	2e\	-s(um)	.	.	.	.
=40-	=40-	=40-	=40-	=40-	=40-	=40-	=40-
2F/	-miſ-	2c/	Pa-	2r	.	.	.
!	!	!	!	!LO:TX:t=P:problem=kreska pseudotaktowa	!	!	!
2D/	-s(um)	1d	.	2d\	Sed	.	.
1A	Pa-	.	.	2.e\	mit-	2ra	.
!	!	!LO:TX:t=P:problem=kreska pseudotaktowa	!	!	!	!LO:TX:t=P:problem=kreska pseudotaktowa	!
.	.	2c/	.	.	.	2a\	Sed
.	.	.	.	4f\	.	.	.
=41-	=41-	=41-	=41-	=41-	=41-	=41-	=41-
!LO:TX:t=P:problem=kreska pseudotaktowa	!	!	!	!	!	!	!
1G	-tris	2d\	-tris	1g	.	1b-	mit-
*	*	*	*ij	*	*	*	*
.	.	2G/	p(ro)-	.	.	.	.
!	!	!LO:TX:t=P:problem=kreska pseudotaktowa	!	!	!	!	!
0rG	.	1d	-miſ-	2f\	-te	2a\	-te
!	!	!	!	!LO:TX:t=P:problem=kreska pseudotaktowa	!	!LO:TX:t=P:problem=kreska pseudotaktowa	!
.	.	.	.	2d\	pro-	2f\	p(ro)-
=42-	=42-	=42-	=42-	=42-	=42-	=42-	=42-
.	.	2c/	-s(um)	2e\	-miſ-	2g\	-miſ-
.	.	2A/	Pa-	2f\	-s(um)	2a\	-s(um)
!LO:TX:t=P:problem=kreska pseudotaktowa	!	!LO:TX:t=P:problem=kreska pseudotaktowa	!	!	!	!LO:TX:t=P:problem=kreska pseudotaktowa	!
1rA	.	1G	.	2.g\	Pa-	1b-	Pa-
.	.	.	.	8f\L	.	.	.
!	!	!	!	!LO:TX:t=P:problem=kreska pseudotaktowa	!	!	!
.	.	.	.	8e\J	.	.	.
=43-	=43-	=43-	=43-	=43-	=43-	=43-	=43-
2rG	.	2d\	-tris	2f\	.	2a\	-tris
*	*ij	*	*Xij	*	*	*	*
!LO:TX:t=P:problem=kreska pseudotaktowa	!	!	!	!LO:TX:t=P:problem=kreska pseudotaktowa	!	!	!
2G/	ſed	2d\	ſed	2g\	-tris	2g\	in
!	!	!	!	!	!	!LO:TX:t=P:problem=kreska pseudotaktowa	!
1d	mit-	1f	mit-	1r	.	1a	nos
=44-	=44-	=44-	=44-	=44-	=44-	=44-	=44-
2c\	-te	2e\	-te	2r	.	2r	.
*	*	*	*	*	*ij	*	*
*	*	*custos:d	*	*	*	*	*
!LO:TX:t=P:problem=kreska pseudotaktowa	!	!LO:TX:t=P:problem=kreska pseudotaktowa	!	!LO:TX:t=P:problem=kreska pseudotaktowa	!	!	!
2A/	pro-	2c/	pro-	2e\	Sed	2cc\	p(ro)-
!	!	!LO:PB:g=original	!	!	!	!	!
2B-\	-miſ-	2d\	-miſ-	1g	mit-	2b-\	-miſ-
*	*	*	*	*	*	*custos:b	*
!	!	!	!	!	!	!LO:TX:t=P:problem=kreska pseudotaktowa	!
!	!	!	!	!	!	!LO:TX:b:i:t=Patris	!
2c\	-s(um)	2e\	-s(um)	.	.	2g\	-s(um)
!	!	!	!	!	!	!LO:PB:g=original	!
=45-	=45-	=45-	=45-	=45-	=45-	=45-	=45-
1d	Pa-	1f	Pa-	2f\	-te	2b-\	Pa-
*	*	*	*	*custos:e	*	*	*
!	!	!	!	!LO:TX:t=P:problem=kreska pseudotaktowa	!	!	!
.	.	.	.	2d\	p(ro)-	1a	-tris
2c\	.	2e\	.	2e\	-miſ-	.	.
!LO:TX:t=P:problem=kreska pseudotaktowa	!	!LO:TX:a:B:t=De Paſsione D(omi)ni Post Eleuationem Laurenty Rattsi	!	!LO:TX:t=P:problem=kreska pseudotaktowa	!	!	!
2B-\	.	1d\	-tris	2g\	-s(um)	2g\	in
=46-	=46-	=46-	=46-	=46-	=46-	=46-	=46-
!	!	!	!	!	!	!LO:TX:t=P:problem=kreska pseudotaktowa	!
1A	-tris	.	.	2f\	Pa-	1a	nos
*	*Xij	*	*	*	*	*	*
!	!	!LO:TX:t=P:problem=kreska pseudotaktowa	!	!	!	!	!
.	.	2c/	in	2.e\	.	.	.
*	*	*lig	*	*	*	*	*
1D	in	1d	nos.	.	.	2r	.
.	.	.	.	4d\	.	.	.
.	.	.	.	1d\	-tris	2.a\	Spi-
*	*	*	*	*	*Xij	*	*
=47-	=47-	=47-	=47-	=47-	=47-	=47-	=47-
!LO:TX:t=P:problem=kreska pseudotaktowa	!	!LO:TX:t=P:problem=kreska pseudotaktowa	!	!	!	!	!
1A	nos	1e	.	.	.	.	.
*	*	*Xlig	*	*	*	*	*
.	.	.	.	.	.	4a\	-ri-
!	!	!	!	!LO:TX:t=P:problem=kreska pseudotaktowa	!	!LO:TX:t=P:problem=kreska pseudotaktowa	!
.	.	.	.	2c#X/	in	2a\	-tum
!	!	!	!	!LO:TX:t=P:problem=kreska pseudotaktowa	!	!LO:TX:a:B:t=De Paſsione D(omi)ni Post Eleuationem.	!
2rG	.	2r	.	1d	nos	2.f\	Ve-
2.d\	Spi-	2.f\	Spi-	.	.	.	.
.	.	.	.	.	.	4g\	.
=48-	=48-	=48-	=48-	=48-	=48-	=48-	=48-
.	.	.	.	0rc	.	4a\	.
4d\	-ri-	4f\	-ri-	.	.	4b-\	.
!LO:TX:t=P:problem=kreska pseudotaktowa	!	!LO:TX:t=P:problem=kreska pseudotaktowa	!	!	!	!	!
2d\	-t(um)	2f\	-tum	.	.	1a	.
2c\	Ve-	2e\	Ve-	.	.	.	.
!	!	!	!	!	!	!LO:TX:t=P:problem=kreska pseudotaktowa	!
2B-\	-ri-	2d\	-ri-	.	.	2g\	.
=49-	=49-	=49-	=49-	=49-	=49-	=49-	=49-
!	!	!LO:TX:t=P:problem=kreska pseudotaktowa	!	!LO:TX:t=P:problem=kreska pseudotaktowa	!	!	!
1A	-ta-	1c	-ta-	1rc	.	4f\	-ri-
.	.	.	.	.	.	8e/L	.
.	.	.	.	.	.	8d/J	.
.	.	.	.	.	.	2e/	-ta-
!LO:TX:t=P:problem=kreska pseudotaktowa	!	!	!	!	!	!	!
0D	-tis	2d\	-tis	2rB	.	2d/	-tis
*	*	*	*ij	*	*	*	*ij
.	.	2.A/	Spi-	2.f\	Spi-	2.a\	Spi-
=50-	=50-	=50-	=50-	=50-	=50-	=50-	=50-
.	.	.	.	.	.	.	.
.	.	4A/	-ri-	4f\	-ri-	4a\	-ri-
!	!	!LO:TX:t=P:problem=kreska pseudotaktowa	!	!LO:TX:t=P:problem=kreska pseudotaktowa	!	!LO:TX:t=P:problem=kreska pseudotaktowa	!
.	.	2A/	-tum	2f\	-tum	2a\	-tum
0rG	.	2c/	Ve-	2e\	Ve-	2g\	Ve-
.	.	2d\	-ri-	2d\	-ri-	2f\	-ri-
=51-	=51-	=51-	=51-	=51-	=51-	=51-	=51-
!	!	!LO:TX:t=P:problem=kreska pseudotaktowa	!	!	!	!LO:TX:t=P:problem=kreska pseudotaktowa	!
.	.	1A	-ta-	1cny	-ta-	1e	-ta-
2rG	.	2B-/	-tis	2d\	-tis	2d/	-tis
*	*	*	*	*	*ij	*	*Xij
!	!	!	!	!LO:TX:t=P:problem=kreska pseudotaktowa	!	!	!
2.G/	Spi-	2.d\	Spi-	2.g\	Spi-	2.b-\	Spi-
=52-	=52-	=52-	=52-	=52-	=52-	=52-	=52-
.	.	.	.	.	.	.	.
4G/	-ri-	4d\	-ri-	4g\	-ri-	4b-\	-ri-
*custos:F	*	*	*	*	*	*	*
!LO:TX:t=P:problem=kreska pseudotaktowa	!	!	!	!	!	!	!
!	!	!LO:TX:t=P:problem=kreska pseudotaktowa	!	!	!	!LO:TX:t=P:problem=kreska pseudotaktowa	!
2G/	-t(um)	2B-/	-tum	2d\	-tum	2b-\	-t(um)
!LO:LB:g=original	!	!	!	!	!	!	!
2F/	Ve-	2c/	Ve-	2f\	Ve-	2a\	Ve-
!	!	!	!	!LO:TX:t=P:problem=kreska pseudotaktowa	!	!	!
2E/	-ri-	2G/	-ri-	2c/	-ri-	2g\	-ri-
=53-	=53-	=53-	=53-	=53-	=53-	=53-	=53-
*	*	*lig	*	*	*	*	*
0D	-ta-	1B-	-ta-	1d	-ta-	2f\	-ta-
.	.	.	.	.	.	1g	-tiſ
.	.	1A	.	1d	-tis	.	.
*	*	*Xlig	*	*	*Xij	*	*
*	*	*	*	*	*	*custos:g	*
!	!	!	!	!	!	!LO:TX:t=P:problem=kreska pseudotaktowa	!
.	.	.	.	.	.	2f\	in
!	!	!	!	!	!	!LO:LB:g=original	!
=54-	=54-	=54-	=54-	=54-	=54-	=54-	=54-
!LO:TX:t=P:problem=kreska pseudotaktowa	!	!	!	!	!	!	!
1G	-tis	2G,/	-tis	2.d\	Al-	2g\	nos
*	*Xij	*	*Xij	*	*	*	*
*	*	*custos:B	*	*	*	*	*
!	!	!LO:TX:t=P:problem=kreska pseudotaktowa	!	!	!	!	!
!	!	!	!	!	!	!LO:TX:t=P:problem=kreska pseudotaktowa	!
.	.	2d\	Al-	.	.	2g\	Al-
!	!	!	!	!LO:TX:t=P:problem=kreska pseudotaktowa	!	!	!
.	.	.	.	4e\	.	.	.
!	!	!LO:LB:g=original	!	!	!	!	!
1r	.	2B-/	-le-	4f\	.	1b-	-le-
.	.	.	.	4d\	.	.	.
!	!	!	!	!LO:TX:t=P:problem=kreska pseudotaktowa	!	!	!
.	.	2G/	-lu-	2g\	.	.	.
=55-	=55-	=55-	=55-	=55-	=55-	=55-	=55-
!	!	!LO:TX:t=P:problem=kreska pseudotaktowa	!	!	!	!	!
2r	.	1d	-ia	2g\	-le-	1a	-lu-
*	*	*	*	*custos:g	*	*	*
!	!	!	!	!LO:TX:t=P:problem=kreska pseudotaktowa	!	!	!
2d\	Al-	.	.	2f\	-lu-	.	.
!	!	!	!	!LO:LB:g=original	!	!	!
!	!	!	!	!LO:TX:t=P:problem=kreska pseudotaktowa	!	!LO:TX:t=P:problem=kreska pseudotaktowa	!
2B-\	-le-	2r	.	1g	-ia	1g	-ia
!LO:TX:t=P:problem=kreska pseudotaktowa	!	!	!	!	!	!	!
2c\	-lu-	1g\	Al-	.	.	.	.
=56-	=56-	=56-	=56-	=56-	=56-	=56-	=56-
2.d\	-ia	.	.	1r	.	0r	.
.	.	1f	.	.	.	.	.
4c\	.	.	.	.	.	.	.
4B-\	.	.	.	2r	.	.	.
4A/	.	.	.	.	.	.	.
*	*ij	*	*	*	*	*	*
!LO:TX:t=P:problem=kreska pseudotaktowa	!	!	!	!LO:TX:t=P:problem=kreska pseudotaktowa	!	!	!
2.G/	Al-	2.e\	-l(e-	2g\	Al-	.	.
=57-	=57-	=57-	=57-	=57-	=57-	=57-	=57-
!	!	!	!	!	!	!LO:TX:t=P:problem=kreska pseudotaktowa	!
.	.	.	.	2g\	-l(e-	1r	.
4F/	.	4d\	.	.	.	.	.
2D/	-le-	1d	-lu-	2f\	-lu-	.	.
!	!	!	!	!LO:TX:t=P:problem=kreska pseudotaktowa	!	!	!
1E	-lu-	.	.	1g	-i)a	2r	.
!	!	!LO:TX:t=P:problem=kreska pseudotaktowa	!	!	!	!	!
.	.	2c/	.	.	.	2g\	Al-
=58-	=58-	=58-	=58-	=58-	=58-	=58-	=58-
!LO:TX:t=P:problem=kreska pseudotaktowa	!	!	!	!	!	!	!
1D	-ia	2d\	-i)a	1r	.	2g\	-l(e-
*	*Xij	*	*ij	*	*	*	*
!	!	!	!	!	!	!LO:TX:t=P:problem=kreska pseudotaktowa	!
.	.	2d\	Al-	.	.	2f\	-lu-
!	!	!	!	!	!	!LO:TX:t=P:problem=kreska pseudotaktowa	!
2r	.	2G/	-l(e-	2.d\	Al-	1g	-i)a
!	!	!LO:TX:t=P:problem=kreska pseudotaktowa	!	!	!	!	!
2d\	Al-	2G/	-lu-	.	.	.	.
!	!	!	!	!LO:TX:t=P:problem=kreska pseudotaktowa	!	!	!
.	.	.	.	4e\	.	.	.
=59-	=59-	=59-	=59-	=59-	=59-	=59-	=59-
2B-\	-le-	2d\	-i)a	4f\	.	2r	.
.	.	.	.	4d\	.	.	.
!LO:TX:t=P:problem=kreska pseudotaktowa	!	!	!	!	!	!	!
2c\	-[lu-	2e\	Al-	2g\	-l(e-	2cc\	Al-
2.d\	-ia]	4d\	-l(e-	2g\	-lu-	2b-\	-l(e-
.	.	4G/	.	.	.	.	.
!	!	!	!	!	!	!LO:TX:t=P:problem=kreska pseudotaktowa	!
.	.	1d\	.	2f\	.	2a\	-lu-
4c\	.	.	.	.	.	.	.
=60-	=60-	=60-	=60-	=60-	=60-	=60-	=60-
!	!	!	!	!LO:TX:t=P:problem=kreska pseudotaktowa	!	!	!
2B-\	.	.	.	1g	-i)a	2b-\	-i)a
*	*ij	*	*	*	*	*	*ij
!LO:TX:t=P:problem=kreska pseudotaktowa	!	!	!	!	!	!	!
2.c\	Al-	2.e\	-lu-	.	.	2.g\	Al-
.	.	.	.	2re	.	.	.
4B-\	.	4d\	.	.	.	4a\	-l(e-
*	*	*	*	*	*ij	*	*
!	!	!	!	!	!	!LO:TX:t=P:problem=kreska pseudotaktowa	!
2G/	-le-	1d\	.	2g\	Al-	2b-\	-lu-
=61-	=61-	=61-	=61-	=61-	=61-	=61-	=61-
!LO:TX:t=P:problem=kreska pseudotaktowa	!	!	!	!	!	!	!
1A	-lu-	.	.	2e\	-l(e-	2.a\	.
!	!	!LO:TX:t=P:problem=kreska pseudotaktowa	!	!LO:TX:t=P:problem=kreska pseudotaktowa	!	!	!
.	.	2c/	.	2f\	-lu-	.	.
.	.	.	.	.	.	8g\L	.
.	.	.	.	.	.	8f\J	.
2G/	-ia	1d	-i)a	2g\	-i)a	2b-\	-i)a
*	*	*	*Xij	*	*Xij	*	*Xij
2D/	Al-	.	.	2f\	Al-	2.a\	Al-
=62-	=62-	=62-	=62-	=62-	=62-	=62-	=62-
2E-X/	.	2B-/	Al-	1e-X	-l(e-	.	.
.	.	.	.	.	.	4g\	.
!LO:TX:t=P:problem=kreska pseudotaktowa	!	!	!	!	!	!	!
2C/	-le-	2c/	-l(e-	.	.	1g	-l(e-
1D	-lu-	1A	-lu-	1d	-lu-	.	.
.	.	.	.	.	.	2f\	-lu-
=63-	=63-	=63-	=63-	=63-	=63-	=63-	=63-
!	!	!	!	!	!	!LO:TX:b:i:t=Laurenty Rattsi	!
0Gl	-ia	0Gl	-i)a.	0dl	-i)a.	0gl	-i)a.
*	*Xij	*	*	*	*	*	*
==	==	==	==	==	==	==	==
*-	*-	*-	*-	*-	*-	*-	*-
!!!system-decoration: [s1,s2,s3,s4]
!!!RDF**kern: < = below
!!!RDF**kern: l = terminal long
!!!AIN: 1 alto 1 bass 1 soprn 1 tenor
!!!ENC: Marta Lawrence
!!!END: 2021-03-19
!!!ENC: Andrzej Borzym
!!!END: 2021-03-02
